X: 1
T: Humours Of Ayle House, The
M: 6/8
L: 1/8
R: jig
K: Dmaj
|:A|FDF E2d|cAA A2G|FDE FdB|cAF GAG|
FDF E2d|cAB cde|faf ded|cAF G2:|
|:B|cAA fed|cAA A2B|cAA fed|cAF G2B|
cAA fed|cAB cde|faf ded|cAF G2:|
